apps/scalable/dvdstyler.svg

<svg xmlns="http://www.w3.org/2000/svg" style="isolation:isolate" width="256" height="256"><defs><filter id="a" width="270.648" height="254.338" x="-7.32" y="2.95" filterUnits="userSpaceOnUse"><feGaussianBlur xmlns="http://www.w3.org/2000/svg" in="SourceGraphic" stdDeviation="4.294"/><feOffset xmlns="http://www.w3.org/2000/svg" dy="4" result="pf_100_offsetBlur"/><feFlood xmlns="http://www.w3.org/2000/svg" flood-opacity=".4"/><feComposite xmlns="http://www.w3.org/2000/svg" in2="pf_100_offsetBlur" operator="in" result="pf_100_dropShadow"/><feBlend xmlns="http://www.w3.org/2000/svg" in="SourceGraphic" in2="pf_100_dropShadow"/></filter></defs><path fill="#5D5D5D" d="M165.685 11.947c74.055 0 84.639 10.557 84.639 84.544v59.251c0 73.986-10.584 84.543-84.639 84.543h-75.37c-74.055 0-84.639-10.557-84.639-84.543V96.491c0-73.987 10.584-84.544 84.639-84.544h75.37z" filter="url(#a)"/><g opacity=".4"><linearGradient id="b" x1=".517" x2=".517" y2="1"><stop offset="0%" stop-color="#fff"/><stop offset="12.5%" stop-opacity=".098" stop-color="#fff"/><stop offset="92.5%" stop-opacity=".098"/><stop offset="100%" stop-opacity=".498"/></linearGradient><path fill="none" stroke="url(#b)" stroke-linecap="round" stroke-linejoin="round" stroke-width="4.077" d="M165.685 11.947c74.055 0 84.639 10.557 84.639 84.544v59.251c0 73.986-10.584 84.543-84.639 84.543h-75.37c-74.055 0-84.639-10.557-84.639-84.543V96.491c0-73.987 10.584-84.544 84.639-84.544h75.37z" vector-effect="non-scaling-stroke"/></g><path fill="#FFF" d="M5.676 126.116v29.626c0 73.986 10.584 84.543 84.639 84.543h75.37c74.055 0 84.639-10.557 84.639-84.543v-29.626H5.676z" opacity=".1"/><linearGradient id="c" x1=".234" x2=".754" y1=".165" y2=".825" gradientTransform="matrix(165 0 0 165 45.5 43.5)" gradientUnits="userSpaceOnUse"><stop offset="0%" stop-color="#dedbde"/><stop offset="50%" stop-color="#e6e6e6"/><stop offset="100%" stop-color="#d2d2d2"/></linearGradient><path fill="url(#c)" d="M210.5 126c0-45.729-36.771-82.5-82.5-82.5S45.5 80.271 45.5 126s36.771 82.5 82.5 82.5 82.5-36.771 82.5-82.5zm-52.317 0c0 16.613-13.237 30.183-30.183 30.183-17.278 0-30.183-13.906-30.183-30.183 0-16.61 12.24-30.183 30.183-30.183 17.943 0 30.183 13.902 30.183 30.183z"/><g opacity=".71"><linearGradient id="d" x1=".274" x2=".757" y1=".77" y2="-.034" gradientTransform="matrix(124.256 0 0 138.659 55.244 53.091)" gradientUnits="userSpaceOnUse"><stop offset="0%" stop-color="#1c83dc"/><stop offset="30%" stop-opacity=".83" stop-color="#1c83dc"/><stop offset="43.783%" stop-opacity=".475" stop-color="#1c83dc"/><stop offset="100%" stop-opacity="0" stop-color="#1c83dc"/></linearGradient><path fill="url(#d)" d="M107.687 161.481a16.243 16.243 0 0 1 7.381 10.073c1.02 4.2.326 8.645-1.916 12.356-2.243 3.67-5.832 6.361-10.032 7.38-4.2 1.02-8.645.327-12.356-1.916a71.816 71.816 0 0 1-26.22-27.77 77.015 77.015 0 0 1-9.298-36.456 68.41 68.41 0 0 1 12.764-40.33 67.606 67.606 0 0 1 26.832-23.856 76.055 76.055 0 0 1 33.968-7.87c7.789-.041 15.537 1.183 23 3.507 7.625 2.365 14.761 6.076 21.164 10.847a16.378 16.378 0 0 1 6.361 10.766c.612 4.282-.489 8.645-3.099 12.07a16.301 16.301 0 0 1-22.836 3.262 38.09 38.09 0 0 0-11.377-5.831c-4.282-1.346-8.768-2.039-13.253-1.998-6.77-.041-13.416 1.509-19.492 4.486a35.03 35.03 0 0 0-14.273 12.967 35.69 35.69 0 0 0-7.136 21.817c0 7.381 1.876 14.68 5.423 21.204 3.303 6.321 8.278 11.582 14.395 15.292z"/></g><linearGradient id="e" x1=".092" x2=".509" y1="1.016" y2=".017" gradientTransform="matrix(43.793 0 0 47.345 97.929 126.795)" gradientUnits="userSpaceOnUse"><stop offset="0%" stop-color="#1b90ff"/><stop offset="47.525%" stop-color="#53a0fd"/><stop offset="100%" stop-color="#68ffad"/></linearGradient><path fill="url(#e)" fill-rule="evenodd" d="M125.161 126.795c-5.447.488-12.868 5.567-15.575 13.341-4.796 13.771 4.02 31.826-11.657 31.148 22.625 11.785 45.971-15.788 43.63-30.367-.506-3.153-1.635-5.664-3.114-7.644l-13.284-6.478z"/><linearGradient id="f" x1=".084" x2=".89" y1="1.028" y2=".533" gradientTransform="matrix(41.201 0 0 47.137 100.521 127.002)" gradientUnits="userSpaceOnUse"><stop offset="0%" stop-color="#a197ff"/><stop offset="100%" stop-color="#60ffa4"/></linearGradient><path fill="url(#f)" fill-rule="evenodd" d="M101.022 172.654c21.605 7.93 42.771-17.822 40.537-31.737-.506-3.153-1.635-5.664-3.114-7.644l-12.858-6.271c-2.727 2.273-5.134 5.183-6.766 8.652-7.652 16.261.828 39.526-18.3 36.675.167.11.334.219.501.325z"/><linearGradient id="g" x1=".325" x2=".444" y1=".938" y2="-.009" gradientTransform="matrix(31.972 0 0 47.079 109.75 127.05)" gradientUnits="userSpaceOnUse"><stop offset="0%" stop-color="#dd61fa"/><stop offset="100%" stop-color="#ffdc5a"/></linearGradient><path fill="url(#g)" fill-rule="evenodd" d="M110.008 174.129c18.088-.524 33.473-21.245 31.551-33.212-.506-3.153-1.635-5.664-3.114-7.644l-12.76-6.223c-2.069 2.546-3.748 5.586-4.672 8.989-4.554 16.762 7.421 37.483-11.263 37.979l.258.111z"/><linearGradient id="h" x1=".547" x2=".298" y1=".867" y2="-.086" gradientTransform="matrix(17.336 0 0 37.519 124.386 127.094)" gradientUnits="userSpaceOnUse"><stop offset="0%" stop-color="#fa6196"/><stop offset="100%" stop-color="#ffd849"/></linearGradient><path fill="url(#h)" fill-rule="evenodd" d="M130.616 164.613c7.485-7.154 12.042-16.855 10.943-23.696-.506-3.153-1.635-5.664-3.114-7.644l-12.669-6.179c-.864 2.338-1.381 4.884-1.39 7.527-.04 11.536 8.167 22.851 6.23 29.992z"/><linearGradient id="i" x1="10.274" x2="14.004" y1="-26.36" y2="-26.36" gradientTransform="matrix(56.116 28.592 -32.566 63.915 133.692 54.652)" gradientUnits="userSpaceOnUse"><stop offset="0%" stop-color="#fff"/><stop offset="100%" stop-color="#ededed"/></linearGradient><path fill="url(#i)" fill-rule="evenodd" d="M151.948 82.81l7.953 4.052-14.521 28.499-7.953-4.052 14.521-28.499zm-17.388 30.238l10.044 5.081a2.908 2.908 0 0 1 1.541 3.156l-1.44 7.32a2.908 2.908 0 0 1-4.173 2.03l-13.51-6.883a2.907 2.907 0 0 1-.853-4.523l4.905-5.518a2.91 2.91 0 0 1 3.486-.663zm18.708-32.829l3.96-7.772c.729-1.431 2.48-2 3.911-1.271l2.772 1.412a2.907 2.907 0 0 1 1.27 3.911l-3.96 7.773-7.953-4.053z"/><linearGradient id="j" x1="7.355" x2="14.054" y1="-26.36" y2="-26.36" gradientTransform="matrix(56.116 28.592 -32.566 63.915 133.692 54.652)" gradientUnits="userSpaceOnUse"><stop offset="0%" stop-color="#828282"/><stop offset="100%" stop-color="#353535"/></linearGradient><path fill="url(#j)" fill-rule="evenodd" d="M151.948 82.81l7.953 4.052-14.521 28.499-7.953-4.052 14.521-28.499zm-17.388 30.238l10.044 5.081a2.908 2.908 0 0 1 1.541 3.156l-1.44 7.32a2.908 2.908 0 0 1-4.173 2.03l-13.51-6.883a2.907 2.907 0 0 1-.853-4.523l4.905-5.518a2.91 2.91 0 0 1 3.486-.663zm18.708-32.829l3.96-7.772c.729-1.431 2.48-2 3.911-1.271l2.772 1.412a2.907 2.907 0 0 1 1.27 3.911l-3.96 7.773-7.953-4.053z"/><linearGradient id="k" x1=".968" x2=".179" y1=".913" y2="-.153" gradientTransform="matrix(15.307 0 0 20.589 126.415 127.406)" gradientUnits="userSpaceOnUse"><stop offset="0%" stop-color="#ff9532"/><stop offset="100%" stop-color="#ffff46"/></linearGradient><path fill="url(#k)" fill-rule="evenodd" d="M141.018 147.995c.676-2.528.884-4.942.541-7.078-.506-3.153-1.635-5.664-3.114-7.644l-12.03-5.867c.179.567.39 1.13.635 1.685 3.521 7.983 12.435 13.389 13.968 18.904z"/><g opacity=".5"><linearGradient id="l" x1="1.166" x2="-.119" y1=".277" y2=".364" gradientTransform="matrix(43.793 0 0 47.345 97.929 126.795)" gradientUnits="userSpaceOnUse"><stop offset="0%" stop-color="#ffd900"/><stop offset="14.463%" stop-color="#ffd800"/><stop offset="25.088%" stop-color="#ce4f02"/><stop offset="33.457%" stop-color="#d30079"/><stop offset="53.45%" stop-color="#53a0fd"/><stop offset="100%" stop-color="#0064a2"/></linearGradient><path fill="url(#l)" d="M127.657 164.312c7.855-6.795 12.745-16.63 11.715-23.043-.393-2.449-1.211-4.521-2.4-6.249l-12.196-5.948c-5.057.77-10.965 5.667-13.098 11.792-.751 2.156-1.187 4.571-1.392 7.417-.144 1.997-.168 3.639-.151 7.193.033 6.859-.166 9.479-1.381 12.299-.699 1.624-1.701 2.908-3.014 3.847 7.459 1.252 15.14-1.446 21.917-7.308zm-2.496-37.517l13.284 6.478c1.479 1.98 2.608 4.491 3.114 7.644 2.341 14.579-21.005 42.152-43.63 30.367 15.677.678 6.861-17.377 11.657-31.148 2.707-7.774 10.128-12.853 15.575-13.341z"/></g><g opacity=".8"><linearGradient id="m" x1="10.274" x2="14.004" y1="-26.36" y2="-26.36" gradientTransform="matrix(56.116 28.592 -32.566 63.915 133.692 54.652)" gradientUnits="userSpaceOnUse"><stop offset="0%" stop-color="#fff"/><stop offset="100%" stop-color="#ededed"/></linearGradient><path fill="url(#m)" fill-rule="evenodd" stroke="#5B5B5B" stroke-width=".535" d="M151.948 82.81l7.953 4.052-14.521 28.499-7.953-4.052 14.521-28.499zm-17.388 30.238l10.044 5.081a2.908 2.908 0 0 1 1.541 3.156l-1.44 7.32a2.908 2.908 0 0 1-4.173 2.03l-13.51-6.883a2.907 2.907 0 0 1-.853-4.523l4.905-5.518a2.91 2.91 0 0 1 3.486-.663zm18.708-32.829l3.96-7.772c.729-1.431 2.48-2 3.911-1.271l2.772 1.412a2.907 2.907 0 0 1 1.27 3.911l-3.96 7.773-7.953-4.053z" vector-effect="non-scaling-stroke"/></g><g opacity=".8"><linearGradient id="n" x1="7.355" x2="14.054" y1="-26.36" y2="-26.36" gradientTransform="matrix(56.116 28.592 -32.566 63.915 133.692 54.652)" gradientUnits="userSpaceOnUse"><stop offset="0%" stop-color="#828282"/><stop offset="100%" stop-color="#353535"/></linearGradient><path fill="url(#n)" fill-rule="evenodd" stroke="#5B5B5B" stroke-width="2" d="M151.948 82.81l7.953 4.052-14.521 28.499-7.953-4.052 14.521-28.499zm-17.388 30.238l10.044 5.081a2.908 2.908 0 0 1 1.541 3.156l-1.44 7.32a2.908 2.908 0 0 1-4.173 2.03l-13.51-6.883a2.907 2.907 0 0 1-.853-4.523l4.905-5.518a2.91 2.91 0 0 1 3.486-.663zm18.708-32.829l3.96-7.772c.729-1.431 2.48-2 3.911-1.271l2.772 1.412a2.907 2.907 0 0 1 1.27 3.911l-3.96 7.773-7.953-4.053z" vector-effect="non-scaling-stroke"/></g></svg>

<svg xmlns="http://www.w3.org/2000/svg" style="isolation:isolate" width="256" height="256" viewBox="0 0 256 256">
 <defs>
  <filter id="SwSNLlIK0RrLDn7hRV57kQhXU8MsyfOT" width="270.648" height="254.338" x="-7.32" y="2.95" filterUnits="userSpaceOnUse">
   <feGaussianBlur xmlns="http://www.w3.org/2000/svg" in="SourceGraphic" stdDeviation="4.294"/>
   <feOffset xmlns="http://www.w3.org/2000/svg" dx="0" dy="4" result="pf_100_offsetBlur"/>
   <feFlood xmlns="http://www.w3.org/2000/svg" flood-opacity=".4"/>
   <feComposite xmlns="http://www.w3.org/2000/svg" in2="pf_100_offsetBlur" operator="in" result="pf_100_dropShadow"/>
   <feBlend xmlns="http://www.w3.org/2000/svg" in="SourceGraphic" in2="pf_100_dropShadow" mode="normal"/>
  </filter>
 </defs>
 <g filter="url(#SwSNLlIK0RrLDn7hRV57kQhXU8MsyfOT)">
  <path fill="#5D5D5D" d="M 165.685 11.947 C 239.74 11.947 250.324 22.504 250.324 96.491 L 250.324 155.742 C 250.324 229.728 239.74 240.285 165.685 240.285 L 90.315 240.285 C 16.26 240.285 5.676 229.728 5.676 155.742 L 5.676 96.491 C 5.676 22.504 16.26 11.947 90.315 11.947 L 165.685 11.947 Z"/>
 </g>
 <g opacity=".4">
  <linearGradient id="_lgradient_13" x1=".517" x2=".517" y1="0" y2="1">
   <stop offset="0%" style="stop-color:rgb(255,255,255)"/>
   <stop offset="12.5%" stop-opacity=".098" style="stop-color:rgb(255,255,255)"/>
   <stop offset="92.5%" stop-opacity=".098" style="stop-color:rgb(0,0,0)"/>
   <stop offset="100%" stop-opacity=".498" style="stop-color:rgb(0,0,0)"/>
  </linearGradient>
  <path fill="none" stroke="url(#_lgradient_13)" stroke-linecap="round" stroke-linejoin="round" stroke-width="4.077" d="M 165.685 11.947 C 239.74 11.947 250.324 22.504 250.324 96.491 L 250.324 155.742 C 250.324 229.728 239.74 240.285 165.685 240.285 L 90.315 240.285 C 16.26 240.285 5.676 229.728 5.676 155.742 L 5.676 96.491 C 5.676 22.504 16.26 11.947 90.315 11.947 L 165.685 11.947 Z" vector-effect="non-scaling-stroke"/>
 </g>
 <g opacity=".1">
  <path fill="#FFFFFF" d="M 5.676 126.116 L 5.676 155.742 C 5.676 229.728 16.26 240.285 90.315 240.285 L 165.685 240.285 C 239.74 240.285 250.324 229.728 250.324 155.742 L 250.324 126.116 L 5.676 126.116 Z"/>
 </g>
 <linearGradient id="_lgradient_14" x1=".234" x2=".754" y1=".165" y2=".825" gradientTransform="matrix(165,0,0,165,45.5,43.5)" gradientUnits="userSpaceOnUse">
  <stop offset="0%" style="stop-color:rgb(222,219,222)"/>
  <stop offset="50%" style="stop-color:rgb(230,230,230)"/>
  <stop offset="100%" style="stop-color:rgb(210,210,210)"/>
 </linearGradient>
 <path fill="url(#_lgradient_14)" d="M 210.5 126 C 210.5 80.271 173.729 43.5 128 43.5 C 82.271 43.5 45.5 80.271 45.5 126 C 45.5 171.729 82.271 208.5 128 208.5 C 173.729 208.5 210.5 171.729 210.5 126 Z M 158.183 126 C 158.183 142.613 144.946 156.183 128 156.183 C 110.722 156.183 97.817 142.277 97.817 126 C 97.817 109.39 110.057 95.817 128 95.817 C 145.943 95.817 158.183 109.719 158.183 126 Z"/>
 <g>
  <g opacity=".71">
   <linearGradient id="_lgradient_15" x1=".274" x2=".757" y1=".77" y2="-.034" gradientTransform="matrix(124.256,0,0,138.659,55.244,53.091)" gradientUnits="userSpaceOnUse">
    <stop offset="0%" style="stop-color:rgb(28,131,220)"/>
    <stop offset="30%" stop-opacity=".83" style="stop-color:rgb(28,131,220)"/>
    <stop offset="43.783%" stop-opacity=".475" style="stop-color:rgb(28,131,220)"/>
    <stop offset="100%" stop-opacity="0" style="stop-color:rgb(28,131,220)"/>
   </linearGradient>
   <path fill="url(#_lgradient_15)" d="M 107.687 161.481 C 111.398 163.724 114.049 167.354 115.068 171.554 C 116.088 175.754 115.394 180.199 113.152 183.91 C 110.909 187.58 107.32 190.271 103.12 191.29 C 98.92 192.31 94.475 191.617 90.764 189.374 C 79.672 182.645 70.62 173.063 64.544 161.604 C 58.468 150.39 55.287 137.871 55.246 125.148 C 55.124 110.712 59.609 96.562 68.01 84.818 C 74.657 74.582 83.913 66.345 94.842 60.962 C 105.404 55.743 117.025 53.051 128.81 53.092 C 136.599 53.051 144.347 54.275 151.81 56.599 C 159.435 58.964 166.571 62.675 172.974 67.446 C 176.44 70.056 178.723 73.93 179.335 78.212 C 179.947 82.494 178.846 86.857 176.236 90.282 C 173.626 93.748 169.793 96.032 165.511 96.644 C 161.229 97.255 156.866 96.154 153.4 93.544 C 149.974 90.975 146.141 89.018 142.023 87.713 C 137.741 86.367 133.255 85.674 128.77 85.715 C 122 85.674 115.354 87.224 109.278 90.201 C 103.405 93.096 98.43 97.622 95.005 103.168 C 90.275 109.489 87.787 117.114 87.869 124.985 C 87.869 132.366 89.745 139.665 93.292 146.189 C 96.595 152.51 101.57 157.771 107.687 161.481 Z"/>
  </g>
  <g>
   <linearGradient id="_lgradient_16" x1=".092" x2=".509" y1="1.016" y2=".017" gradientTransform="matrix(43.793,0,0,47.345,97.929,126.795)" gradientUnits="userSpaceOnUse">
    <stop offset="0%" style="stop-color:rgb(27,144,255)"/>
    <stop offset="47.525%" style="stop-color:rgb(83,160,253)"/>
    <stop offset="100%" style="stop-color:rgb(104,255,173)"/>
   </linearGradient>
   <path fill="url(#_lgradient_16)" fill-rule="evenodd" d="M 125.161 126.795 C 119.714 127.283 112.293 132.362 109.586 140.136 C 104.79 153.907 113.606 171.962 97.929 171.284 C 120.554 183.069 143.9 155.496 141.559 140.917 C 141.053 137.764 139.924 135.253 138.445 133.273 L 125.161 126.795 Z"/>
   <linearGradient id="_lgradient_17" x1=".084" x2=".89" y1="1.028" y2=".533" gradientTransform="matrix(41.201,0,0,47.137,100.521,127.002)" gradientUnits="userSpaceOnUse">
    <stop offset="0%" style="stop-color:rgb(161,151,255)"/>
    <stop offset="100%" style="stop-color:rgb(96,255,164)"/>
   </linearGradient>
   <path fill="url(#_lgradient_17)" fill-rule="evenodd" d="M 101.022 172.654 C 122.627 180.584 143.793 154.832 141.559 140.917 C 141.053 137.764 139.924 135.253 138.445 133.273 L 125.587 127.002 C 122.86 129.275 120.453 132.185 118.821 135.654 C 111.169 151.915 119.649 175.18 100.521 172.329 C 100.688 172.439 100.855 172.548 101.022 172.654 L 101.022 172.654 Z"/>
   <linearGradient id="_lgradient_18" x1=".325" x2=".444" y1=".938" y2="-.009" gradientTransform="matrix(31.972,0,0,47.079,109.75,127.05)" gradientUnits="userSpaceOnUse">
    <stop offset="0%" style="stop-color:rgb(221,97,250)"/>
    <stop offset="100%" style="stop-color:rgb(255,220,90)"/>
   </linearGradient>
   <path fill="url(#_lgradient_18)" fill-rule="evenodd" d="M 110.008 174.129 C 128.096 173.605 143.481 152.884 141.559 140.917 C 141.053 137.764 139.924 135.253 138.445 133.273 L 125.685 127.05 C 123.616 129.596 121.937 132.636 121.013 136.039 C 116.459 152.801 128.434 173.522 109.75 174.018 C 109.836 174.056 109.922 174.092 110.008 174.129 L 110.008 174.129 Z"/>
   <linearGradient id="_lgradient_19" x1=".547" x2=".298" y1=".867" y2="-.086" gradientTransform="matrix(17.336,0,0,37.519,124.386,127.094)" gradientUnits="userSpaceOnUse">
    <stop offset="0%" style="stop-color:rgb(250,97,150)"/>
    <stop offset="100%" style="stop-color:rgb(255,216,73)"/>
   </linearGradient>
   <path fill="url(#_lgradient_19)" fill-rule="evenodd" d="M 130.616 164.613 C 138.101 157.459 142.658 147.758 141.559 140.917 C 141.053 137.764 139.924 135.253 138.445 133.273 L 125.776 127.094 C 124.912 129.432 124.395 131.978 124.386 134.621 C 124.346 146.157 132.553 157.472 130.616 164.613 Z"/>
   <linearGradient id="_lgradient_20" x1="10.274" x2="14.004" y1="-26.36" y2="-26.36" gradientTransform="matrix(56.116,28.592,-32.566,63.915,133.692,54.652)" gradientUnits="userSpaceOnUse">
    <stop offset="0%" style="stop-color:rgb(255,255,255)"/>
    <stop offset="100%" style="stop-color:rgb(237,237,237)"/>
   </linearGradient>
   <path fill="url(#_lgradient_20)" fill-rule="evenodd" d="M 151.948 82.81 L 159.901 86.862 L 145.38 115.361 L 137.427 111.309 L 151.948 82.81 Z M 134.56 113.048 L 144.604 118.129 C 145.767 118.717 146.396 120.007 146.145 121.285 L 144.705 128.605 C 144.395 130.181 142.866 131.207 141.291 130.897 C 141.027 130.846 140.771 130.757 140.532 130.635 L 127.022 123.752 C 125.591 123.023 125.023 121.272 125.752 119.841 C 125.864 119.62 126.004 119.415 126.169 119.229 L 131.074 113.711 L 131.074 113.711 C 131.951 112.725 133.382 112.453 134.56 113.048 Z M 153.268 80.219 L 157.228 72.447 C 157.957 71.016 159.708 70.447 161.139 71.176 L 163.911 72.588 C 165.342 73.317 165.91 75.068 165.181 76.499 L 161.221 84.272 L 153.268 80.219 Z"/>
   <linearGradient id="_lgradient_21" x1="7.355" x2="14.054" y1="-26.36" y2="-26.36" gradientTransform="matrix(56.116,28.592,-32.566,63.915,133.692,54.652)" gradientUnits="userSpaceOnUse">
    <stop offset="0%" style="stop-color:rgb(130,130,130)"/>
    <stop offset="100%" style="stop-color:rgb(53,53,53)"/>
   </linearGradient>
   <path fill="url(#_lgradient_21)" fill-rule="evenodd" d="M 151.948 82.81 L 159.901 86.862 L 145.38 115.361 L 137.427 111.309 L 151.948 82.81 Z M 134.56 113.048 L 144.604 118.129 C 145.767 118.717 146.396 120.007 146.145 121.285 L 144.705 128.605 C 144.395 130.181 142.866 131.207 141.291 130.897 C 141.027 130.846 140.771 130.757 140.532 130.635 L 127.022 123.752 C 125.591 123.023 125.023 121.272 125.752 119.841 C 125.864 119.62 126.004 119.415 126.169 119.229 L 131.074 113.711 L 131.074 113.711 C 131.951 112.725 133.382 112.453 134.56 113.048 Z M 153.268 80.219 L 157.228 72.447 C 157.957 71.016 159.708 70.447 161.139 71.176 L 163.911 72.588 C 165.342 73.317 165.91 75.068 165.181 76.499 L 161.221 84.272 L 153.268 80.219 Z"/>
   <linearGradient id="_lgradient_22" x1=".968" x2=".179" y1=".913" y2="-.153" gradientTransform="matrix(15.307,0,0,20.589,126.415,127.406)" gradientUnits="userSpaceOnUse">
    <stop offset="0%" style="stop-color:rgb(255,149,50)"/>
    <stop offset="100%" style="stop-color:rgb(255,255,70)"/>
   </linearGradient>
   <path fill="url(#_lgradient_22)" fill-rule="evenodd" d="M 141.018 147.995 C 141.694 145.467 141.902 143.053 141.559 140.917 C 141.053 137.764 139.924 135.253 138.445 133.273 L 126.415 127.406 C 126.594 127.973 126.805 128.536 127.05 129.091 C 130.571 137.074 139.485 142.48 141.018 147.995 L 141.018 147.995 Z"/>
   <g opacity=".5">
    <linearGradient id="_lgradient_23" x1="1.166" x2="-.119" y1=".277" y2=".364" gradientTransform="matrix(43.793,0,0,47.345,97.929,126.795)" gradientUnits="userSpaceOnUse">
     <stop offset="0%" style="stop-color:rgb(255,217,0)"/>
     <stop offset="14.463%" style="stop-color:rgb(255,216,0)"/>
     <stop offset="25.088%" style="stop-color:rgb(206,79,2)"/>
     <stop offset="33.457%" style="stop-color:rgb(211,0,121)"/>
     <stop offset="53.45%" style="stop-color:rgb(83,160,253)"/>
     <stop offset="100%" style="stop-color:rgb(0,100,162)"/>
    </linearGradient>
    <path fill="url(#_lgradient_23)" d="M 127.657 164.312 C 135.512 157.517 140.402 147.682 139.372 141.269 C 138.979 138.82 138.161 136.748 136.972 135.02 L 124.776 129.072 C 119.719 129.842 113.811 134.739 111.678 140.864 C 110.927 143.02 110.491 145.435 110.286 148.281 C 110.142 150.278 110.118 151.92 110.135 155.474 C 110.168 162.333 109.969 164.953 108.754 167.773 C 108.055 169.397 107.053 170.681 105.74 171.62 C 113.199 172.872 120.88 170.174 127.657 164.312 L 127.657 164.312 Z M 125.161 126.795 L 138.445 133.273 C 139.924 135.253 141.053 137.764 141.559 140.917 C 143.9 155.496 120.554 183.069 97.929 171.284 C 113.606 171.962 104.79 153.907 109.586 140.136 C 112.293 132.362 119.714 127.283 125.161 126.795 L 125.161 126.795 Z"/>
   </g>
   <g opacity=".8">
    <linearGradient id="_lgradient_24" x1="10.274" x2="14.004" y1="-26.36" y2="-26.36" gradientTransform="matrix(56.116,28.592,-32.566,63.915,133.692,54.652)" gradientUnits="userSpaceOnUse">
     <stop offset="0%" style="stop-color:rgb(255,255,255)"/>
     <stop offset="100%" style="stop-color:rgb(237,237,237)"/>
    </linearGradient>
    <path fill="url(#_lgradient_24)" fill-rule="evenodd" stroke="#5B5B5B" stroke-width=".535" d="M 151.948 82.81 L 159.901 86.862 L 145.38 115.361 L 137.427 111.309 L 151.948 82.81 Z M 134.56 113.048 L 144.604 118.129 C 145.767 118.717 146.396 120.007 146.145 121.285 L 144.705 128.605 C 144.395 130.181 142.866 131.207 141.291 130.897 C 141.027 130.846 140.771 130.757 140.532 130.635 L 127.022 123.752 C 125.591 123.023 125.023 121.272 125.752 119.841 C 125.864 119.62 126.004 119.415 126.169 119.229 L 131.074 113.711 L 131.074 113.711 C 131.951 112.725 133.382 112.453 134.56 113.048 Z M 153.268 80.219 L 157.228 72.447 C 157.957 71.016 159.708 70.447 161.139 71.176 L 163.911 72.588 C 165.342 73.317 165.91 75.068 165.181 76.499 L 161.221 84.272 L 153.268 80.219 Z" vector-effect="non-scaling-stroke"/>
   </g>
   <g opacity=".8">
    <linearGradient id="_lgradient_25" x1="7.355" x2="14.054" y1="-26.36" y2="-26.36" gradientTransform="matrix(56.116,28.592,-32.566,63.915,133.692,54.652)" gradientUnits="userSpaceOnUse">
     <stop offset="0%" style="stop-color:rgb(130,130,130)"/>
     <stop offset="100%" style="stop-color:rgb(53,53,53)"/>
    </linearGradient>
    <path fill="url(#_lgradient_25)" fill-rule="evenodd" stroke="#5B5B5B" stroke-width="2" d="M 151.948 82.81 L 159.901 86.862 L 145.38 115.361 L 137.427 111.309 L 151.948 82.81 Z M 134.56 113.048 L 144.604 118.129 C 145.767 118.717 146.396 120.007 146.145 121.285 L 144.705 128.605 C 144.395 130.181 142.866 131.207 141.291 130.897 C 141.027 130.846 140.771 130.757 140.532 130.635 L 127.022 123.752 C 125.591 123.023 125.023 121.272 125.752 119.841 C 125.864 119.62 126.004 119.415 126.169 119.229 L 131.074 113.711 L 131.074 113.711 C 131.951 112.725 133.382 112.453 134.56 113.048 Z M 153.268 80.219 L 157.228 72.447 C 157.957 71.016 159.708 70.447 161.139 71.176 L 163.911 72.588 C 165.342 73.317 165.91 75.068 165.181 76.499 L 161.221 84.272 L 153.268 80.219 Z" vector-effect="non-scaling-stroke"/>
   </g>
  </g>
 </g>
</svg>
